X:655
T:The Taylor's Thimble
M:6/8
L:1/8
Z:abc by Bruce Osborne - bosborne@kos.net
K:D
A|DFF FED|FAA A2 d|BdB Ade|fed dBA|!
DFF FED|FAA A2 d|BdB AFE|FDD D2:|!
|:e|fef fed|faa agf|efe edB|ede fdB|!
def fed|faa afd|BdB AFE|FDD D2:|!
